X:287
T: DIE REISE NACH SUEDLAND
N: E1430
O: Europa, Mitteleuropa, Deutschland; Fankreich, Elsass
R: Staende -, Soldaten - Lied, Liebe, Abschied
M: 3/4
L: 1/8
K: Bb
F2 | B2B2c2 | d2d2
Bc | d3ded | c4
cd | e3gfe | d3c
Bd | c2B2A2 | f4
cd | e3gfd | d3c
Bd | c2B2A2 | B4

@@@ Tune index: 4971
